X:1
T:Title
%%score { ( 1 3 ) | ( 2 4 ) }
L:1/8
M:4/4
K:Bb
V:1 treble nm="Grand Piano"
V:3 treble 
V:2 bass 
V:4 bass 
V:1
 z4 z2[Q:1/4=100] [DF]2 | [DB]2 AG F2 G2 | D2 =E2 F2 BA | GA [FB]2 [=Ec]2 [_EA]2 |[M:3/4] [DB]6 | %5
[M:1/4] [DF]2 |[M:4/4] [DB]2 AG F2 G2 | D2 =E2 F2 BA | GA [FB]2 [=Ec]2 [_EA]2 |[M:3/4] [DB]6 | %10
[M:1/4] [DB][Ec] |[M:4/4] [Fd]3 [=E_d] [F=d]2 [Ge]d | c3 =B c2 A_B | c3 c dc[DB]A |[M:3/4] [DB]6 | %15
[M:1/4] [DF]2 |[M:4/4] [EG]2 [EG]2 [=Ec]2 [CG]2 | [CFA]2 F-[Fc] d2 F2 | GA [FB]2 [=Ec]2 [_EA]2 | %19
 [DB]6 z2 | [Fd]4 [Ge]>d [Fc]>B | [EB]2- [CEB]2 [EA]2- [CEA]2 | [FA]2- [CFA]2 [Ac]>[GB] [FA]>[EG] | %23
 [EG]4 [DF]4 | [Fd]4 [Ge]>[Fd] [Fc]>[FB] | [FA]4 [EG]4 | F2 B2 AB c2 |[M:3/4] [DB]6 |] %28
V:2
 z4 z2 [B,,B,]2 | [B,,F,]2 [C,F,]2 [D,B,]2 [E,B,E]2 | [G,B,]2 [C,B,C]2 [F,A,C]2 [D,B,]2 | %3
 [E,B,E]2 [D,B,]2 [C,B,]2 [F,C]F, |[M:3/4] [B,,F,]6 |[M:1/4] [B,,B,]2 | %6
[M:4/4] [B,,F,]2 [C,F,]2 [D,B,]2 [E,B,E]2 | [G,B,]2 [C,B,C]2 [F,A,C]2 [D,B,]2 | %8
 [E,B,E]2 [D,B,]2 [C,B,]2 [F,C]F, |[M:3/4] [B,,F,]6 |[M:1/4] [B,,B,]2 | %11
[M:4/4] [B,,B,]3 [B,,B,] [B,,B,]2 z F | [F,A,E]3 [F,_A,D] [F,=A,E]2 CD | [F,A,E]3 [F,A,E] FE z C | %14
[M:3/4] [B,,F,]6 |[M:1/4] [B,,B,]2 |[M:4/4] [E,B,]2 [E,B,]2 [C,B,]2 z[K:treble] B | %17
 F,E,D,[F,A,] [B,F]2 [D,B,]2 | [E,B,E]2 [D,B,]2 [C,B,]2 [F,C]F, | [B,,F,]6 z2 | %20
 [B,,B,]2 [B,,B,]2 z z/ F/ z z/ F/ | F,2 F,2 F,2 F,2 | F,2 F,2 [F,C]2 [F,A,]2 | %23
 [B,,B,]2 [B,,B,]2 [B,,B,]2 [B,,B,]2 | [B,,B,]2 [B,,B,]2 [B,,B,]2 [C,A,]>[D,B,] | %25
 [E,B,]2 E,2 E,2 E,2 | [F,B,D]2 [F,DF]2 [CE][B,D] [F,A,E]2 |[M:3/4] [B,,B,]6 |] %28
V:3
 x8 | z2 E2 z4 | z4 z2 F2 | x8 |[M:3/4] x6 |[M:1/4] x2 |[M:4/4] z2 E2 z4 | z4 z2 F2 | x8 | %9
[M:3/4] x6 |[M:1/4] x2 |[M:4/4] x8 | x8 | x8 |[M:3/4] x6 |[M:1/4] x2 |[M:4/4] x8 | z2 .[B,B]2 z4 | %18
 x8 | x8 | z4 z2 D2 | C2 z2 C2 z2 | C2 z2 z4 | x8 | x8 | z2 B,2 B,2 B,2 | x8 |[M:3/4] x6 |] %28
V:4
 x8 | x8 | x8 | x8 |[M:3/4] x6 |[M:1/4] x2 |[M:4/4] x8 | x8 | x8 |[M:3/4] x6 |[M:1/4] x2 | %11
[M:4/4] z4 z2 [B,,B,]2 | z4 z2 F,2 | z4 [F,A,]2 F,2 |[M:3/4] x6 |[M:1/4] x2 | %16
[M:4/4] z4 z2 =E,2[K:treble] | x8 | x8 | x8 | z4 [B,,B,]2 B,,2 | x8 | x8 | x8 | x8 | x8 | %26
 z4 F,2 z2 |[M:3/4] x6 |] %28

